X: 1
T: Polska fr\aan \"Appelbo
O: Sweden
Z: 2018 John Chambers <jc:trillian.mit.edu>
S: http://www.natunelist.net/polska-fran-appelbo/
M: 3/4
L: 1/8
K: Gm
% - - - - - - - - - -
V: 1 staves=2
D |\
G>^F GA B>c | d<=e c4 | c>=B cd g>^f |\
[1,3 ^fd dc B>A :|[2 [^f2A2] [d3D3] :|[4 ^f2 [d4D4] |]
|:\
d>B Bd f>d | e>c c>=e g>^f | ^f>d dB d>c |\
[1,3 AB GB d2 :|[2,4 A<B G4 :|
% - - - - - - - - - -
V: 2
G, |\
B,>A, B,C D>D | D<=E [F4A,4] | A>G A=B =e>d |\
dB BA G>^F :|[2 [d2D2] [A3^F3] :|[3 d2 [A4^F4] |]
|:\
B>G GB d>B | c>A Ac =e>d | d>B BG B>A |\
[1,3 ^FG DG B2 :[2,4 ^F<G [D4B,4] :|
